X:0182
M:2/4
L:1/8
Q:1/4=84
K:D
d2      cd     |(f/e/)(d/c/) dA|B2  ge         |(a/g/)(f/e/) fd   |
d(c/d/) A(d/e/)|(f/e/)(d/c/) de|fg (a/g/)(f/e/)| d2          d2  :|

